X:1
T:[ID 2-66]
T:[ID 2-66]
T:Bezeichnung standardisiert: Menuett Men\"uet 5.
T:Urheber unbekannt Datum in der hier transkribierten schriftlichen Quelle: 1767
C:Urheber unbekannt
C:Datum in der hier transkribierten schriftlichen Quelle: 1767
L:1/8
M:3/4
K:G
V:1 treble 
V:1
"^Bass III, 90" G4 BG | dBgdBG | D4 FD | AFcAFD | G4 BG | dBgdBG | AB c2 B2 | A6 :: d3 bbg | %9
 bddccB | c3 aac | accBBA |"^1)" d4 (3def | g4 d2 | edcBGF | G6 :|"^Trio" !fermata!d4 (3edc | %17
 B4 (3cBA | G4 (3AGF | G4 z2 | AB c2 B2 | BA A4 |"^1)" BA G2 F2 | G6 :: e4 (3=fed | e6 | d4 (3edc | %27
 d6 | Ac c2 B2 | BA A4 |"^1)" FGABcB | A6 :: d4 (3efg | d4 c2 | BABGAF | G6"^DaCapo Men\" ue :| %36

